X:2
T:Hkpers Vals (\251 Lars Hkpers)
C:W-51
M:3/4
L:1/8
K:Dm
A2|:"Dm"d3e fa|"Gm"+trill+g3f ed|"A"+trill+^c2 A3G| "Dm"{/G}F4 D2|"F"F2 EF AG |
"C"E4 c2|"G"+trill+=B2 GA Bd | "A"A4 A2|"Dm"d3e fa|"Gm"+trill+g3f ed|
"A"+trill+^c2 A3G| "Dm"{/G}+trill+F4 E2|D2 ^CD EF|"Gm"A2 G3E|"A"F2 E2 D^C|"Dm"D4 A2-:|
|:"Dm"(AF) (FD) (FA)|(AF) (FD) (FA)| A2 G3F |"A"{/F}+trill+E4 G2-|
(GE) (E^C) (EG)| "A"(GE) (E^C) (EG) |G2 A3E|"Dm"{/G}+trill+F4 A2-|
"Dm"(AF) (FD) (FA)|(AF) (FD) (FA)|"D"A2 d3c| "Gm"{/c}+trill+B4 B2|
"Gm"{/c}B2 c3B|"Dm"A4 F2| "A"GF E2 D^C|"Dm"D4 A2-:|]
%%textfont       Times-Roman 10.0
%%text 4/18/11 For use only by Roaring Jelly members

%%pageheight 11.0in
%%pagewidth 8.5in
%%topmargin .3cm
%%botmargin .3cm
%%newpage
%%topspace 0cm
%%musicspace 0cm
%%subtitlespace 0cm
L:1/8
%%titlefont Times-Roman 18
%%gchordfont Helvetica-Narrow-Bold 12.0
%%setfont-1 Times-Roman 12
%%scale .7
%%textfont Times-Roman 18
%%leftmargin 2.1cm
%%rightmargin 2.6cm

%%leftmargin .4cm
%%rightmargin 1.1cm
%%scale .85
